modules/hawcons-filled/icons/icon-5-mail-envelope-open.svg

<?xml version="1.0" encoding="UTF-8" standalone="no"?>
<svg width="32px" height="32px" viewBox="0 0 32 32" version="1.1" xmlns="http://www.w3.org/2000/svg" xmlns:xlink="http://www.w3.org/1999/xlink" xmlns:sketch="http://www.bohemiancoding.com/sketch/ns">
    <!-- Generator: Sketch 3.0.3 (7891) - http://www.bohemiancoding.com/sketch -->
    <title>icon 5 mail envelope open</title>
    <desc>Created with Sketch.</desc>
    <defs></defs>
    <g id="Page-1" stroke="none" stroke-width="1" fill="none" fill-rule="evenodd" sketch:type="MSPage">
        <g id="icon-5-mail-envelope-open" sketch:type="MSArtboardGroup" fill="#929292">
            <path d="M22.1851633,20.1270029 L20,22 L20,22 L25.9230769,27.0769231 L25.9230769,27.0769231 L25.1153846,27.8846154 L19.1195568,22.7453344 L13.8961462,22.7681253 L13.875,22.75 L7.88461538,27.8846154 L7.07692308,27.0769231 L7.07692308,27.0769231 L13,22 L10.8148367,20.1270029 L7,16.9000244 L7,11.36 L4,14 L4,28.0059397 C4,29.1072288 4.88976324,30 6.00359486,30 L26.9964051,30 C28.10296,30 29,29.1054862 29,28.0059397 L29,14 L29,14 L26,11.36 L26,16.9000244 L22.1851633,20.1270029 L22.1851633,20.1270029 L22.1851633,20.1270029 Z M13.0909091,6 L16.5,3 L19.9090909,6 L13.0909091,6 L13.0909091,6 L13.0909091,6 Z M8.9999602,7 C8.44769743,7 8,7.44373571 8,8.00207596 L8,16.2000122 L14.2521973,21.5159302 L18.671936,21.5159302 L25,16.2000122 L25,8.00207596 C25,7.44864469 24.5452911,7 24.0000398,7 L8.9999602,7 L8.9999602,7 Z" id="mail-envelope-open" sketch:type="MSShapeGroup"></path>
        </g>
    </g>
</svg>

<svg width="32" height="32" viewBox="0 0 32 32" xmlns="http://www.w3.org/2000/svg"><path d="M22.185 20.127L20 22l5.923 5.077-.808.808-5.995-5.14-5.224.023-.021-.018-5.99 5.135-.808-.808L13 22l-2.185-1.873L7 16.9v-5.54L4 14v14.006C4 29.107 4.89 30 6.004 30h20.992A2 2 0 0 0 29 28.006V14l-3-2.64v5.54l-3.815 3.227zM13.091 6L16.5 3l3.41 3h-6.82zM9 7c-.552 0-1 .444-1 1.002V16.2l6.252 5.316h4.42L25 16.2V8.002C25 7.45 24.545 7 24 7H9z" fill="#929292" fill-rule="evenodd"/></svg>
